X:29
T:Speed the Plough
M:4/4
L:1/8
Q:220
Z:Brian Martin
K:G
D|GABc dedB|dgdB dedB|c2ecB2dB|AGAB cedB|
GABc dedB|dgdB dedB|c2ecB2dB|AGFA G3:|
z|{f}g2gf gGBd|g2fe dBGB|c2ecB2dB|AGAB cedB|
{f}g2gf gGBd|g2fe dBGB|c2ecB2dB|AGFA G3:||

